pc/_inc/system-inverted.svg

<svg xmlns="http://www.w3.org/2000/svg" viewBox="0 0 566.9 226.8" xml:space="preserve"><path fill="#6097C6" d="M0 0v15.5h110.4V0H0zm126 0v15.5h157.3S267.2 0 246 0H126zm188.1 0v15.5h95.1L403.6 0h-89.5zm163.3 0-5.6 15.5h94.3V0h-88.7zM0 30.2v15.5h110.4V30.2H0zm126 0v15.5h175.5s-2.1-11.9-5.6-15.5H126zm188.1 0v15.5h105.6l-5.2-15.5H314.1zm152 0-5.2 15.5H566V30.2h-99.9zM31.7 60.3v15.5h47.8V60.3H31.7zm126 0v15.5h47.8V60.3h-47.8zm94.3 0v15.5h47.8s3-8.2 3-15.5H252zm93.8 0v15.5h84.7l-5.6-15.5h-79.1zm109.9 0L450 75.8h85.2V60.3h-79.5zm-424 30.2V106h47.8V90.5H31.7zm126 0V106h122.1s10.2-8 13.5-15.5H157.7zm188.1 0V106h47.8v-8.6l3 8.6h87.5l3.3-8.6v8.6h47.8V90.5h-89.7l-4.8 13.1-4.7-13.1h-90.2zM31.7 120.7v15.5h47.8v-15.5H31.7zm126 0v15.5h135.5c-3.3-7.5-13.5-15.5-13.5-15.5h-122zm188.1 0v15.5h47.8v-15.5h-47.8zm56.5 0 5.8 15.5h65.6l5.5-15.5h-76.9zm85.1 0v15.5h47.8v-15.5h-47.8zM31.7 150.9v15.5h47.8v-15.5H31.7zm126 0v15.5h47.8v-15.5h-47.8zm94.3 0v15.5h50.8c0-7.3-3-15.5-3-15.5H252zm93.8 0v15.5h47.8v-15.5h-47.8zm67.3 0 5.6 15.5h44l5.6-15.5h-55.2zm74.3 0v15.5h47.8v-15.5h-47.8zM.9 181.1v15.5h110.4v-15.5H.9zm125.1 0v15.5h169.9c3.6-3.6 5.6-15.5 5.6-15.5H126zm189 0v15.5h78.6v-15.5H315zm109 0 5.8 15.5h22.4l5.4-15.5H424zm63.4 0v15.5h79.5v-15.5h-79.5zM.9 211.3v15.5h110.4v-15.5H.9zm125.1 0v15.5h119.9c21.3 0 37.3-15.5 37.3-15.5H126zm189 0v15.5h78.6v-15.5H315zm119.9 0 5.5 15.5h1l5.6-15.5h-12.1zm52.5 0v15.5h79.5v-15.5h-79.5z"/></svg>

<?xml version="1.0" encoding="utf-8"?>
<!-- Generator: Adobe Illustrator 18.0.0, SVG Export Plug-In . SVG Version: 6.00 Build 0)  -->
<!DOCTYPE svg PUBLIC "-//W3C//DTD SVG 1.1//EN" "http://www.w3.org/Graphics/SVG/1.1/DTD/svg11.dtd">
<svg version="1.1" id="Ebene_1" xmlns="http://www.w3.org/2000/svg" xmlns:xlink="http://www.w3.org/1999/xlink" x="0px" y="0px"
	 viewBox="0 0 566.9 226.8" enable-background="new 0 0 566.9 226.8" xml:space="preserve">
<path fill="#6097C6" d="M0,0v15.5h110.4V0H0z M126,0v15.5h157.3c0,0-16.1-15.5-37.3-15.5H126z M314.1,0v15.5h95.1L403.6,0H314.1z
	 M477.4,0l-5.6,15.5h94.3V0H477.4z M0,30.2v15.5h110.4V30.2H0z M126,30.2v15.5h175.5c0,0-2.1-11.9-5.6-15.5H126z M314.1,30.2v15.5
	h105.6l-5.2-15.5H314.1z M466.1,30.2l-5.2,15.5h105.1V30.2H466.1z M31.7,60.3v15.5h47.8V60.3H31.7z M157.7,60.3v15.5h47.8V60.3
	H157.7z M252,60.3v15.5h47.8c0,0,3-8.2,3-15.5C302.8,60.3,252,60.3,252,60.3z M345.8,60.3v15.5h84.7l-5.6-15.5
	C424.9,60.3,345.8,60.3,345.8,60.3z M455.7,60.3l-5.7,15.5h85.2V60.3H455.7z M31.7,90.5v15.5h47.8V90.5H31.7z M157.7,90.5v15.5
	h122.1c0,0,10.2-8,13.5-15.5H157.7z M345.8,90.5v15.5h47.8v-8.6l3,8.6h87.5l3.3-8.6v8.6h47.8V90.5h-89.7l-4.8,13.1L436,90.5H345.8z
	 M31.7,120.7v15.5h47.8v-15.5H31.7z M157.7,120.7v15.5h135.5c-3.3-7.5-13.5-15.5-13.5-15.5H157.7z M345.8,120.7v15.5h47.8v-15.5
	H345.8z M402.3,120.7l5.8,15.5h65.6l5.5-15.5H402.3z M487.4,120.7v15.5h47.8v-15.5H487.4z M31.7,150.9v15.5h47.8v-15.5H31.7z
	 M157.7,150.9v15.5h47.8v-15.5H157.7z M252,150.9v15.5h50.8c0-7.3-3-15.5-3-15.5H252z M345.8,150.9v15.5h47.8v-15.5H345.8z
	 M413.1,150.9l5.6,15.5h44l5.6-15.5H413.1z M487.4,150.9v15.5h47.8v-15.5H487.4z M0.9,181.1v15.5h110.4v-15.5H0.9z M126,181.1v15.5
	h169.9c3.6-3.6,5.6-15.5,5.6-15.5H126z M315,181.1v15.5h78.6v-15.5H315z M424,181.1l5.8,15.5h22.4l5.4-15.5H424z M487.4,181.1v15.5
	h79.5v-15.5H487.4z M0.9,211.3v15.5h110.4v-15.5H0.9z M126,211.3v15.5h119.9c21.3,0,37.3-15.5,37.3-15.5H126z M315,211.3v15.5h78.6
	v-15.5H315z M434.9,211.3l5.5,15.5l1,0l5.6-15.5L434.9,211.3L434.9,211.3z M487.4,211.3v15.5h79.5v-15.5H487.4z"/>
</svg>
